X:1
T:Sinfonia XV
T:BWV 801    (A = 415 Hz)
T:J. S. Bach
%%score { ( 1 3 ) | 2 }
L:1/8
Q:1/4=72
M:9/16
K:D
V:1 treble nm="Harp"
V:3 treble 
V:2 bass 
V:1
 B/F/F/ G/F/F/ B/F/F/ | c/F/F/ G/F/F/ c/F/F/ | %2
 d/4B/4d/4f/4b/4f/4 d/4f/4d/4B/4d/4B/4 F/4B/4F/4D/4F/4D/4 | B,/ z/ z B/c/ d/c/B/ | %4
 ^A3/2- A/B/c/ B/c/A/ | B/4F/4B/4d/4f/4d/4 B/4d/4B/4F/4B/4F/4 D/4F/4D/4B,/4D/4B,/4 | d3- d3/2- | %7
 d/B/B/ c/B/B/ e/B/B/ | c3- c3/2- | c/A/A/ B/A/A/ d/A/A/ | %10
 B/4d/4B/4G/4B/4G/4 E3/2 e/4g/4e/4c/4e/4c/4 | A/4c/4A/4F/4A/4F/4 D3/2 d/4f/4d/4B/4d/4B/4 | %12
 G/4B/4G/4E/4G/4E/4 C/4E/4C/4A,/4C/4A,/4 A/F/G/ | F3/2 z3/2 z3/2 | z3 z3/2 | z3/2 z3/2 z3/2 | %16
 A/E/E/ F/E/E/ A/E/E/ | B/E/E/ F/E/E/ B/E/E/ | %18
 c/4A/4c/4e/4a/4f/4 ^d/4f/4d/4B/4d/4B/4 F/4B/4F/4^D/4F/4D/4 | E3/2 z3/2 G3/2- | %20
 G/E/E/ F/E/E/ A/E/E/ | F3- F3/2- | F/D/D/ E/D/D/ G/D/D/ | E3- E3/2- | E/C/C/ D/C/C/ F/C/C/ | %25
 D/4B,/4D/4F/4D/4F/4 B/4F/4B/4d/4B/4d/4 g3/2 | C/4A,/4C/4E/4C/4E/4 A/4E/4A/4c/4A/4c/4 f3/2 | %27
 B,/4G,/4B,/4D/4B,/4D/4 G/4D/4G/4B/4G/4B/4 e3/2- | e/F/F/ G/F/F/ e/F/F/ | d3- d3/2- | %30
 d/B/B/ =c/B/B/ g/B/B/ | ^A3/2[Q:1/4=50] !fermata!f3- | %32
[Q:1/4=80] f/4B/4d/4f/4b/4f/4 d/4f/4d/4B/4d/4B/4 F/4B/4F/4D/4F/4D/4 | d3- d3/2- | %34
 d/c/c/ ^g/c/c/ d/c/c/ | =e/c/c/ ^a/c/d/ e/d/c/ | f/g/e/ d3/2 d/4c/4d/4c/4B/ | %37
[Q:1/4=40] B3- B3/2 |] %38
V:2
 B,,3/2 z/ B,/C/ D/C/B,/ | ^A,3/2- A,/B,/C/ B,/C/A,/ | B,3/2 z z2 | B,/F,/F,/ G,/F,/F,/ B,/F,/F,/ | %4
 C/F,/F,/ G,/F,/F,/ C/F,/F,/ | D/4B,/4D/4F/4B/4F/4 D/4F/4D/4B,/4D/4B,/4 F,/4B,/4F,/4D,/4F,/4D,/4 | %6
 B,,3/2 z/ B,/C/ D/C/B,/ | E3/2 z/ E,/F,/^G,/F,/E,/ | A,3/2 z/ A,,/B,,/ C,/B,,/A,,/ | %9
 D,3/2 z/ D,,/E,,/F,,/E,,/D,,/ | G,,3/2 G,/4B,/4G,/4E,/4G,/4E,/4 C,/4E,/4C,/4A,,/4C,/4A,,/4 | %11
 F,,3/2 F,/4A,/4F,/4D,/4F,/4D,/4 B,,/4D,/4B,,/4G,,/4B,,/4G,,/4 | %12
 E,,3/2 E,/4G,/4E,/4C,/4E,/4C,/4 A,,/4C,/4A,,/4F,,/4A,,/4F,,/4 | D,,3/2 z/ D,,/E,,/ F,,/E,,/D,,/ | %14
 C,,3/2 z/ A,,/B,,/ C,/B,,/A,,/ | D,3/2- D,/E,/F,/ E,/F,/D,/ | C,3/2 z3/2 z3/2 | E,3/2 z3/2 z3/2 | %18
 A,,3/2 F,3 | G,3/2 z/ E,/F,/ G,/F,/F,/ | A,3/2 z/ A,,/B,,/ C,/B,,/A,,/ | %21
 D,3/2 z/ D,/E,/ F,/E,/D,/ | D,3/2 z/ D,,/E,,/F,,/E,,/D,,/ | C,3/2 z/ C,/B,,/ ^A,,/B,,/C,/ | %24
 F,,3/2 z/ F,/E,/ D,/E,/F,/ | B,,3/2 D,/4B,,/4D,/4F,/4D,/4F,/4 B,/4G,/4B,/4E/4B,/4E/4 | %26
 A,,3/2 C,/4A,,/4C,/4E,/4C,/4E,/4 A,/4F,/4A,/4D/4A,/4D/4 | %27
 G/4B/4G/4D/4G/4D/4 B,/4D/4B,/4G,/4B,/4G,/4 E,/4G,/4E,/4C,/4E,/4C,/4 | %28
 ^A,,->A,,B,,/C,/ F,,/B,,/A,,/ | B,,3/2 z3/2 B,,3/2 | E,3/2- E,3- | E,3/2- !fermata!E,3 | %32
 D, z/ z z2 | B,/4G,/4B,/4D/4G/4D/4 B,/4D/4B,/4G,/4B,/4G,/4 D,/4G,/4D,/4B,,/4D,/4B,,/4 | %34
 E,,3/2 z z2 | F,,3/2 z/ E,/F,/ G,/F,/E,/ | D,E,/ F,E,/ F,F,,/ | !fermata!B,,3- B,,3/2 |] %38
V:3
 x9/2 | x9/2 | x9/2 | x9/2 | x9/2 | x9/2 | B/F/F/ G/F/F/ B/F/F/ | ^G3- G3/2 | %8
 A/E/E/ F/E/E/ A/E/E/ | F3- F3/2 | G/ z/ z/ z3/2 z3/2 | x3 z3/2 | x9/2 | %13
 D/A,/A,/ B,/A,/A,/ D/A,/A,/ | E/A,/A,/ B,/A,/A,/ E/A,/A,/ | %15
 F/4D/4F/4A/4d/4B/4 ^G/4B/4G/4E/4G/4E/4 B,/4E/4B,/4[I:staff +1]^G,/4B,/4G,/4 | %16
 E,3/2[I:staff -1] z/[I:staff +1] A,/B,/ C/B,/A,/ | ^G,3/2- G,/A,/B,/ A,/B,/G,/ | %18
 A,3/2- A,/B,/=C/ B,/C/A,/ |[I:staff -1] E/B,/B,/ =C/B,/B,/ E/B,/B,/ | ^C3- C3/2- | %21
 C/A,/A,/ B,/A,/A,/ D/A,/A,/ |[I:staff +1] B,3- B,3/2- | B,/^G,/G,/ A,/G,/G,/ C/G,/G,/ | %24
 ^A,3- A,3/2 | B,/[I:staff -1] z4 |[I:staff +1] G,/[I:staff -1] z4 | z4 x/ | x9/2 | %29
 F/B,/B,/ D/B,/B,/ F/B,/B,/ | G3- G3/2 | F3/2 !fermata!^A3 | x9/2 | B3- B3/2- | B3- B3/2 | %35
 ^A3/2 z/ A/B/ c/B/A/ | B3 ^A3/2 | !fermata!B3- B3/2 |] %38

